apps/statesvisited/state-images/AR.svg

<svg height="635" width="1182" xmlns="http://www.w3.org/2000/svg"><path d="m600.02542 407.40176s.297-3.26663-.2969-5.64236c-.594-2.37573-2.3758-.8909-1.7818-5.04842.5939-4.15753 16.3331-32.66628 16.3331-32.66628s0-3.86056.5939-9.20595c.594-5.34539 6.2363-12.76954 6.2363-12.76954l-10.9877-1.18787s3.5636-5.93932 3.8605-7.12719c.297-1.18786-75.4294 1.48484-75.4294 1.48484l.594 59.98716 8.315 3.56359.297 7.12719z" fill="#ed553b" fill-rule="evenodd" opacity=".9" stroke="#000"/></svg>

<svg xmlns:dc="http://purl.org/dc/elements/1.1/" xmlns:cc="http://web.resource.org/cc/" xmlns:rdf="http://www.w3.org/1999/02/22-rdf-syntax-ns#" xmlns:svg="http://www.w3.org/2000/svg" xmlns="http://www.w3.org/2000/svg" xmlns:xlink="http://www.w3.org/1999/xlink" id="svg1923" width="1182" height="635" version="1"><metadata id="metadata1928"><rdf:RDF><cc:Work><dc:format>image/svg+xml</dc:format><dc:type rdf:resource="http://purl.org/dc/dcmitype/StillImage"/></cc:Work></rdf:RDF></metadata><g id="layer1" opacity="1" display="none"><image xlink:href="ElectoralCollege1996-Large.png" width="1182" height="635" id="image1930" x="-1.357" y="1.68"/></g><g id="layer2" opacity="0.9" display="inline"><path d="M 600.02542,407.40176 C 600.02542,407.40176 600.32242,404.13513 599.72852,401.7594 C 599.13452,399.38367 597.35272,400.8685 597.94672,396.71098 C 598.54062,392.55345 614.27982,364.0447 614.27982,364.0447 C 614.27982,364.0447 614.27982,360.18414 614.87372,354.83875 C 615.46772,349.49336 621.11002,342.06921 621.11002,342.06921 L 610.12232,340.88134 C 610.12232,340.88134 613.68592,334.94202 613.98282,333.75415 C 614.27982,332.56629 538.55342,335.23899 538.55342,335.23899 L 539.14742,395.22615 L 547.46242,398.78974 L 547.75942,405.91693 L 600.02542,407.40176 z" id="path12612" fill="#ed553b" fill-opacity="1" fill-rule="evenodd" stroke="black" stroke-width="1px" stroke-linecap="butt" stroke-linejoin="miter" stroke-opacity="1"/></g></svg>
